!!!COM: Robert Schumann
!!!CNT: Deutsch
!!!TXO: Deutsch
!!!OTL: "Requiem (Altkatholisches Gedicht)
!!!LYR: Anon
!!!OPR: Sechs Gedichte von N. Lenau und Requiem
!!!OPS: Op. 90
!!!ONM: No. 7
!!!ENC: Leigh VanHandel
!!!YOR: Schumann Lieder - Max Friedlaender, ed.,
!!!YOR: New York: C. F. Peters, Vol. 3
!!!ODT: 1850/
**kern	**silbe
*staff1	*
*clefG2	*
*k[b-e-a-]	*
*met(C)	*
*M4/4	*
*MM[Langsam]	*
=1	=1
1r	.
=2	=2
2r	.
{4.a-	{Ruh'
8a-	von
=3	=3
4.g	schmer-
16b-	-zens
16a-	|
4.g	rei-
8f	-chen
=4	=4
4.f	Mu2-
8e-	-hen
4e-	aus
4ee-	und
=5	=5
[2dd	hei-
8dd]	|
8an	-ssem
8b-	Lie-
8cc	-bes-
=6	=6
4cc	-glu2-
4b-}	-hen;}
2r	.
=7	=7
2r	.
{4.dd	{der
8b-	nach
=8	=8
4.an	se-
8g	-li-
4a	-gem
4b-	Ver-
=9	=9
2b-	-ein
4.b-	trug
8ff	Ver-
=10	=10
4ff	-lan-
4ee-}	-gen,}
2r	.
=11	=11
2r	.
{4.g	{ist
8b-	ge-
=12	=12
4b-	-gan-
4f	-gen
4b-	zu
4ee-	des
=13	=13
2.dd	Hei-
4an	-lands
=14	=14
4.cc	Woh-
8b-	-nung
4b-}	ein.}
4r	.
=15	=15
2r	.
{4.f	{Dem
8f	Ge-
=16	=16
4ff	-rech-
4ee-	-ten
4dd	leuch-
4cc	-ten
=17	=17
4dd	hel-
4g}	-le}
2r	.
=18	=18
{[2a-	{Ster-
8a-]	|
8a-	-ne
8.dd-	in
16cc	des
=19	=19
4.cc	Gra-
8b-	-bes
4b-	Zel-
4b-}	-le,}
=20	=20
4r	.
{2cc	{ihm,
4g	der
=21	=21
4.a-	selbst
8a-	als
4ee-	Stern
4dd-	der
=22	=22
2cc	Nacht
4cc	wird
4cc	er-
=23	=23
2cc	-schei-
2f#}	-nen,}
=24	=24
4r	.
{4.g	{wenn
8g	er
8cc	sei-
8ee-	-nen
=25	=25
4.ee-	Herrn
8bn	er-
2b}	-schaut,}
=26	=26
4r	.
{4cc	{er-
4ee-	-schaut
4gg	in
=27	=27
2.gg	Him-
4ff	-mels-
=28	=28
1ee-}	-pracht.}
=29	=29
1r	.
=30	=30
1r	.
=31	=31
4r	.
{2cc	{Seid
4a-	Fu2r-
=32	=32
4.a-	-spre-
8g	-cher,
4g	heil-
4f	-ge
=33	=33
4en	See-
4g}	-len,}
2r	.
=34	=34
4r	.
{2cc	{Heil-
4a-	-ger
=35	=35
4.g	Geist,
8g	lass
4g	Trost
4an	nicht
=36	=36
4cc	feh-
4b-}	-len;}
2r	.
=37	=37
{2ee-	{ho2rst
2a-}	du?}
=38	=38
{4.ff	{Ju-
8ff	bel
4ee-	sang
4dd-	er-
=39	=39
1gg}	-klingt,}
=40	=40
4r	.
{2cc	{Fei-
4ff	-er-
=41	=41
2ff	-to2-
2b-}	-ne,}
=42	=42
4r	.
8r	.
{8cc	{dar-
4.cc	-ein
8cc	die
=43	=43
2.cc	scho2-
4cc	-ne
=44	=44
4.ff	En-
8ff	-gels-
4.ee-	-har-
8ee-	-fe
=45	=45
1dd}	singt:
=46	=46
2r	.
{4.a-	{Ruh'
8a-	von
=47	=47
4.g	schmer-
16b-	zens
16a-	|
4g	rei-
4f	-chen
=48	=48
4.f	Mu2-
8e-	-hen
4e-	aus
4ee-	und
=49	=49
[2dd	hei-
8dd]	|
8an	-ssem
8b-	Lie-
8cc	-bes-
=50	=50
4cc	-glu2-
8b-}	-hen;}
8r	.
2r	.
=51	=51
2r	.
{4.b-	{der
8ee-	nach
=52	=52
4ee-	se-
4an	-li-
4b-	-gem
8dd	Ver-
8cc	|
=53	=53
2b-	-ein
[2ee-	trug
=54	=54
2.ee-]}	|}
{4ee-	{Ver-
=55	=55
2ee-	-lan-
2f}	-gen,}
=56	=56
4r	.
{2f	{ist
4cc	ge-
=57	=57
4b-	-gan-
4cc	-gen
4dd	zu
4ee-	des
=58	=58
2.ee-	Hei-
4g	-lands
=59	=59
[2a-	Woh-
8a-]	|
8cc	|
8b-	-nung
8a-	|
=60	=60
[1g	ein
=61	=61
1g_	|
=62	=62
2g]}	|}
2r	.
==	==
*-	*-
